X: 17
T:Mary Custy's Hornpipe #2
M:C|
L:1/8
S:Sharon Shannon
R:hornpipe/highland
Z:Stone
K:A
A>F|E>CE>F E>A,C>E|F>AA>B A2 A>B|c2 c>B A>cB>A|(F2 F)>E F2 A>F|
E>CE>F E>A,C>E|F>AA>B A2 a>f|e>cc>B A>cB>A|F>(AA)>B A2  :|
|:A>B|c>ee>f(e2e)>a|f>aa>b a2 a>f|e>cc>B A>cB>A|1(F2F)>E F2 A>B|
c>ee>f(e2e)>a|f>aa>b a2 a>f|e>cc>B A>cB>A|F>(AA)>B A2 A>B:|
2F2  F>E F2 A>F|E>CE>F E>A,C>E|F>AA>B A2 a>f|e>cc>B A>cB>A|F>(AA)>B A2
|
